app/resource/noteInputSupportIcons/icon-bold.svg

<?xml version="1.0" encoding="UTF-8"?>
<svg width="12px" height="17px" viewBox="0 0 12 17" version="1.1" xmlns="http://www.w3.org/2000/svg" xmlns:xlink="http://www.w3.org/1999/xlink">
    <!-- Generator: Sketch 48.2 (47327) - http://www.bohemiancoding.com/sketch -->
    <title>icon-bold</title>
    <desc>Created with Sketch.</desc>
    <defs></defs>
    <g id="Edit-Page" stroke="none" stroke-width="1" fill="none" fill-rule="evenodd" transform="translate(-125.000000, -564.000000)">
        <g id="icon-bold" transform="translate(113.000000, 554.000000)">
            <g>
                <rect id="Rectangle-3" fill="#D8D8D8" opacity="0" x="0" y="0" width="36" height="36"></rect>
                <path d="M14,10 L17.8677355,10 C18.5090212,10 19.1502974,10.0720332 19.7915832,10.2161017 C20.4328689,10.3601702 21.0060095,10.6002808 21.511022,10.9364407 C22.0160346,11.2726006 22.4248481,11.7128033 22.7374749,12.2570621 C23.0501018,12.801321 23.2064128,13.4816343 23.2064128,14.2980226 C23.2064128,15.2424718 22.9338705,16.0348367 22.3887776,16.6751412 C21.8436846,17.3154458 21.122249,17.7556485 20.2244489,17.9957627 C20.7695418,18.1078158 21.2745468,18.2478803 21.739479,18.4639831 C22.2044111,18.6800858 22.6052087,18.9642167 22.9418838,19.3163842 C23.2785588,19.6685517 23.5390772,20.0847434 23.7234469,20.5649718 C23.9078166,21.0452001 24,21.5814471 24,22.1737288 C24,22.9901171 23.831665,23.7024452 23.49499,24.3107345 C23.1583149,24.9190238 22.7014057,25.4192542 22.1242485,25.8114407 C21.5470913,26.2036272 20.8697434,26.4997636 20.0921844,26.6998588 C19.3146254,26.8999539 18.4849743,27 17.6032064,27 L14,27 C12.8954305,27 12,26.1045695 12,25 L12,12 C12,10.8954305 12.8954305,10 14,10 Z M14.3807615,17.1793785 L17.4829659,17.1793785 C17.931866,17.1793785 18.3607194,17.1273546 18.7695391,17.0233051 C19.1783588,16.9192556 19.5350686,16.7591819 19.8396794,16.5430791 C20.1442901,16.3269763 20.3847687,16.054851 20.5611222,15.7266949 C20.7374758,15.3985388 20.8256513,15.0023564 20.8256513,14.5381356 C20.8256513,13.6257017 20.4889813,12.9734012 19.8156313,12.5812147 C19.1422812,12.1890282 18.2364786,11.9929379 17.0981964,11.9929379 L14.3807615,11.9929379 L14.3807615,17.1793785 Z M14.3807615,24.9830508 L17.3627255,24.9830508 C17.8597219,24.9830508 18.3607189,24.9390306 18.8657315,24.8509887 C19.370744,24.7629468 19.8276533,24.6068749 20.2364729,24.3827684 C20.6452926,24.1586618 20.9739467,23.8585235 21.2224449,23.4823446 C21.4709431,23.1061657 21.5951904,22.6299464 21.5951904,22.0536723 C21.5951904,21.0451927 21.2505044,20.3168572 20.5611222,19.8686441 C19.87174,19.4204309 18.877762,19.1963277 17.5791583,19.1963277 L14.3807615,19.1963277 L14.3807615,24.9830508 Z" fill-opacity="0.544185915" fill="#000000"></path>
            </g>
        </g>
    </g>
</svg>

<?xml version="1.0" encoding="UTF-8"?><svg version="1.1" viewBox="0 0 12 17" xmlns="http://www.w3.org/2000/svg"><title>icon-bold</title><desc>Created with Sketch.</desc><g transform="translate(-125 -564)" fill="none" fill-rule="evenodd"><g transform="translate(113 554)"><rect width="36" height="36" fill="#D8D8D8" opacity="0"/><path d="m14 10h3.8677c0.64129 0 1.2826 0.072033 1.9238 0.2161 0.64129 0.14407 1.2144 0.38418 1.7194 0.72034 0.50501 0.33616 0.91383 0.77636 1.2265 1.3206 0.31263 0.54426 0.46894 1.2246 0.46894 2.041 0 0.94445-0.27254 1.7368-0.81764 2.3771-0.54509 0.6403-1.2665 1.0805-2.1643 1.3206 0.54509 0.11205 1.0501 0.25212 1.515 0.46822 0.46493 0.2161 0.86573 0.50023 1.2024 0.8524 0.33668 0.35217 0.59719 0.76836 0.78156 1.2486 0.18437 0.48023 0.27655 1.0165 0.27655 1.6088 0 0.81639-0.16834 1.5287-0.50501 2.137-0.33668 0.60829-0.79358 1.1085-1.3707 1.5007s-1.2545 0.68832-2.0321 0.88842c-0.77756 0.2001-1.6072 0.30014-2.489 0.30014h-3.6032c-1.1046 0-2-0.89543-2-2v-13c0-1.1046 0.89543-2 2-2zm0.38076 7.1794h3.1022c0.4489 0 0.87775-0.052024 1.2866-0.15607s0.76553-0.26412 1.0701-0.48023c0.30461-0.2161 0.54509-0.48823 0.72144-0.81638 0.17635-0.32816 0.26453-0.72434 0.26453-1.1886 0-0.91243-0.33667-1.5647-1.01-1.9569-0.67335-0.39219-1.5792-0.58828-2.7174-0.58828h-2.7174v5.1864zm0 7.8037h2.982c0.497 0 0.99799-0.04402 1.503-0.13206 0.50501-0.088042 0.96192-0.24411 1.3707-0.46822 0.40882-0.22411 0.73747-0.52424 0.98597-0.90042s0.37275-0.8524 0.37275-1.4287c0-1.0085-0.34469-1.7368-1.0341-2.185-0.68938-0.44821-1.6834-0.67232-2.982-0.67232h-3.1984v5.7867z" fill="#000" fill-opacity=".54419"/></g></g></svg>
